public/images/timeline/queen.svg

<svg width="16" height="16" viewBox="0 0 16 16" fill="none" xmlns="http://www.w3.org/2000/svg">
<g clip-path="url(#clip0_1184_334)">
<g filter="url(#filter0_f_1184_334)">
<path d="M2.3868 12.3395L1.4453 7.20305C1.63207 7.28506 1.82509 7.35298 2.02307 7.40586C2.62776 7.56737 3.25895 7.58316 3.87062 7.45169C4.482 7.32027 5.05354 7.04617 5.54669 6.6546C6.03948 6.26332 6.44165 5.76473 6.73032 5.19783L6.73035 5.19777L8 2.70403L9.26965 5.19777L9.26977 5.198C9.55853 5.76481 9.96078 6.2633 10.4536 6.65448C10.9468 7.04594 11.5184 7.31992 12.1297 7.45123C12.7414 7.58259 13.3726 7.56669 13.9772 7.4051C14.1751 7.3522 14.3681 7.28426 14.5548 7.20225L13.6132 12.3395C13.6132 12.3395 13.6132 12.3396 13.6132 12.3396C13.5771 12.5364 13.5012 12.716 13.3964 12.8658L14.2157 13.4392L13.3964 12.8658C13.2918 13.0152 13.1628 13.1289 13.0242 13.2045C11.4596 14.0582 9.73976 14.5 8 14.5C6.26024 14.5 4.54041 14.0582 2.97575 13.2045C2.8372 13.1289 2.70822 13.0152 2.60361 12.8658C2.49879 12.716 2.42291 12.5364 2.38681 12.3396C2.38681 12.3396 2.3868 12.3395 2.3868 12.3395Z" stroke="white" stroke-width="2" stroke-linecap="round" stroke-linejoin="round"/>
</g>
<path d="M2.3868 12.3395L1.4453 7.20305C1.63207 7.28506 1.82509 7.35298 2.02307 7.40586C2.62776 7.56737 3.25895 7.58316 3.87062 7.45169C4.482 7.32027 5.05354 7.04617 5.54669 6.6546C6.03948 6.26332 6.44165 5.76473 6.73032 5.19783L6.73035 5.19777L8 2.70403L9.26965 5.19777L9.26977 5.198C9.55853 5.76481 9.96078 6.2633 10.4536 6.65448C10.9468 7.04594 11.5184 7.31992 12.1297 7.45123C12.7414 7.58259 13.3726 7.56669 13.9772 7.4051C14.1751 7.3522 14.3681 7.28426 14.5548 7.20225L13.6132 12.3395C13.6132 12.3395 13.6132 12.3396 13.6132 12.3396C13.5771 12.5364 13.5012 12.716 13.3964 12.8658L14.2157 13.4392L13.3964 12.8658C13.2918 13.0152 13.1628 13.1289 13.0242 13.2045C11.4596 14.0582 9.73976 14.5 8 14.5C6.26024 14.5 4.54041 14.0582 2.97575 13.2045C2.8372 13.1289 2.70822 13.0152 2.60361 12.8658C2.49879 12.716 2.42291 12.5364 2.38681 12.3396C2.38681 12.3396 2.3868 12.3395 2.3868 12.3395Z" stroke="white" stroke-width="2" stroke-linecap="round" stroke-linejoin="round"/>
</g>
<defs>
<filter id="filter0_f_1184_334" x="-1" y="-0.5" width="18" height="17" filterUnits="userSpaceOnUse" color-interpolation-filters="sRGB">
<feFlood flood-opacity="0" result="BackgroundImageFix"/>
<feBlend mode="normal" in="SourceGraphic" in2="BackgroundImageFix" result="shape"/>
<feGaussianBlur stdDeviation="0.5" result="effect1_foregroundBlur_1184_334"/>
</filter>
<clipPath id="clip0_1184_334">
<rect width="16" height="16" fill="white"/>
</clipPath>
</defs>
</svg>

<svg width="16" height="16" fill="none" xmlns="http://www.w3.org/2000/svg"><g clip-path="url(#a)"><g filter="url(#b)"><path d="m2.387 12.34-.942-5.137a3.94 3.94 0 0 0 2.425.249 4.072 4.072 0 0 0 1.677-.797c.492-.392.895-.89 1.183-1.457h0L8 2.704l1.27 2.494h0a4.414 4.414 0 0 0 1.184 1.456 4.072 4.072 0 0 0 1.676.797 3.94 3.94 0 0 0 2.425-.249l-.942 5.137s0 0 0 0a1.34 1.34 0 0 1-.217.527l.82.573-.82-.573c-.104.15-.233.263-.372.338A10.473 10.473 0 0 1 8 14.5c-1.74 0-3.46-.442-5.024-1.296a1.103 1.103 0 0 1-.372-.338 1.34 1.34 0 0 1-.217-.526s0 0 0 0z" stroke="#fff" stroke-width="2" stroke-linecap="round" stroke-linejoin="round"/></g><path d="m2.387 12.34-.942-5.137a3.94 3.94 0 0 0 2.425.249 4.072 4.072 0 0 0 1.677-.797c.492-.392.895-.89 1.183-1.457h0L8 2.704l1.27 2.494h0a4.414 4.414 0 0 0 1.184 1.456 4.072 4.072 0 0 0 1.676.797 3.94 3.94 0 0 0 2.425-.249l-.942 5.137s0 0 0 0a1.34 1.34 0 0 1-.217.527l.82.573-.82-.573c-.104.15-.233.263-.372.338A10.473 10.473 0 0 1 8 14.5c-1.74 0-3.46-.442-5.024-1.296a1.103 1.103 0 0 1-.372-.338 1.34 1.34 0 0 1-.217-.526s0 0 0 0z" stroke="#fff" stroke-width="2" stroke-linecap="round" stroke-linejoin="round"/></g><defs><clipPath id="a"><path fill="#fff" d="M0 0h16v16H0z"/></clipPath><filter id="b" x="-1" y="-.5" width="18" height="17" filterUnits="userSpaceOnUse" color-interpolation-filters="sRGB"><feFlood flood-opacity="0" result="BackgroundImageFix"/><feBlend in="SourceGraphic" in2="BackgroundImageFix" result="shape"/><feGaussianBlur stdDeviation=".5" result="effect1_foregroundBlur_1184_334"/></filter></defs></svg>
